brandFactory_export/1.Light/Añadir bloque consulta_1Light.svg

<?xml version="1.0" encoding="UTF-8"?>
<svg width="24px" height="24px" viewBox="0 0 24 24" version="1.1" xmlns="http://www.w3.org/2000/svg" xmlns:xlink="http://www.w3.org/1999/xlink">
    <title>1.Light/Añadir bloque consulta_1Light</title>
    <g id="Symbols" stroke="none" stroke-width="1" fill="none" fill-rule="evenodd">
        <g id="1.Light/Añadir-bloque-consulta_1Light" fill="#5CB615" fill-rule="nonzero">
            <path d="M7.68067227,17.5092437 C7.68067227,17.7815126 7.45882353,18 7.18991597,18 C6.9210084,18 6.69915966,17.7781513 6.69915966,17.5092437 L6.69915966,14.4 L3.61008403,14.4 C3.33781513,14.4 3.11596639,14.1781513 3.11596639,13.9058824 C3.11596639,13.6336134 3.33781513,13.4117647 3.61008403,13.4117647 L6.69915966,13.4117647 L6.69915966,10.3428571 C6.69915966,10.0705882 6.9210084,9.85210084 7.18991597,9.85210084 C7.45882353,9.85210084 7.68067227,10.0739496 7.68067227,10.3428571 L7.68067227,13.4117647 L10.7764706,13.4117647 C11.0487395,13.4117647 11.2705882,13.6336134 11.2705882,13.9058824 C11.2705882,14.1781513 11.0487395,14.4 10.7764706,14.4 L7.68067227,14.4 L7.68067227,17.5092437 Z M20.3226891,22.0067227 C21.8588235,21.5428571 22.6386555,20.9176471 22.6386555,20.1445378 L22.6386555,16.2386555 C22.1109244,16.6420168 21.4285714,16.9848739 20.6184874,17.2302521 C19.1831933,17.6638655 17.3008403,17.8991597 15.3210084,17.8991597 C14.7193277,17.8991597 14.1142857,17.8756303 13.5193277,17.8319328 C12.2420168,20.2016807 9.86218487,20.8739496 8.41680672,21.0588235 C8.8,21.4252101 9.43193277,21.7478992 10.292437,22.0067227 C11.6470588,22.410084 13.4285714,22.6353312 15.307563,22.6353312 C17.1865546,22.6386555 18.9680672,22.4134454 20.3226891,22.0067227 L20.3226891,22.0067227 Z M6.87731092,20.1478992 L7.08907563,20.1478992 C7.23361345,20.1478992 7.37815126,20.1478992 7.50252101,20.1445378 C12.9714286,20.0436975 13.3983193,15.3747899 13.3983193,13.9462185 C13.3983193,8.44705882 9.25042017,7.7512605 7.46890756,7.71092437 C7.31092437,7.70756303 7.12605042,7.70420168 6.94789916,7.70420168 L6.82352941,7.70420168 C5.06890756,7.7210084 0.988233239,8.35294118 0.988233239,13.902521 C0.98487395,19.4621849 5.10588235,20.1210084 6.87731092,20.1478992 Z M10.2890756,1.61344538 C9.00504202,2 8.22857143,2.52436975 8.0302521,3.13277311 C8.03361345,3.1394958 8.04033613,3.14621849 8.04369748,3.15630252 C8.24201681,3.75798319 9.02521008,4.2789916 10.302521,4.66554622 C11.6470588,5.06890756 13.4285714,5.29411765 15.3176471,5.29411765 C17.2067227,5.29411765 18.9882353,5.06890756 20.3327731,4.66554622 C21.5764706,4.28907563 22.3529412,3.78487395 22.5747899,3.2 C22.5781513,3.18991597 22.5882353,3.18319328 22.594958,3.17310924 C22.4134454,2.53781513 21.6537815,2.01344538 20.3226891,1.61344538 C18.9781513,1.21008403 17.1966387,0.98487395 15.3042017,0.98487395 C13.4151261,0.98487395 11.6336134,1.21008403 10.2890756,1.61344538 L10.2890756,1.61344538 Z M14.194958,12.0403361 C14.3092437,12.6151261 14.3831933,13.2369748 14.3831933,13.9428571 C14.3831933,15.0957983 14.2084034,16.0537815 13.9294118,16.8672269 C16.2554622,17.0084034 18.6554622,16.789916 20.3361345,16.2857143 C21.6672269,15.8857143 22.389916,15.2672269 22.6386555,14.8033613 L22.6386555,10.4134454 C22.1142857,10.8168067 21.4285714,11.1596639 20.6184874,11.405042 C19.1798319,11.8386555 17.3008403,12.0739496 15.3210084,12.0739496 C14.9781513,12.0773109 14.5579832,12.0672269 14.194958,12.0403361 Z M7.97310924,4.62184874 L7.97310924,6.74957983 C9.49579832,6.87731092 12.7394958,7.5697479 13.9294118,11.0252101 C13.9327731,11.0252101 13.9394958,11.0218487 13.9428571,11.0252101 C14.1983193,11.0689076 14.6857143,11.092437 15.3210084,11.092437 C17.2067227,11.092437 18.9882353,10.8672269 20.3361345,10.4638655 C21.6705882,10.0605042 22.389916,9.44537815 22.6386555,8.98151261 L22.6386555,4.64201681 C22.1445378,5.02857143 21.4722689,5.35462185 20.6151261,5.61344538 C19.1831933,6.04705882 17.3008403,6.28235294 15.3176471,6.28235294 C13.3344538,6.28235294 11.4521008,6.04369748 10.0201681,5.61344538 C9.14957983,5.34789916 8.47058824,5.01848739 7.97310924,4.62184874 Z M20.605042,0.672268908 C22.6084034,1.27394958 23.6235294,2.21848739 23.6235294,3.4789916 L23.6235294,20.1445378 C23.6235294,21.405042 22.6084034,22.3495798 20.6084034,22.9512605 C19.1630252,23.3848739 17.2806723,23.6235294 15.3042017,23.6235294 C13.3310924,23.6235294 11.4521008,23.3848739 10.0067227,22.9546218 C8.56134454,22.5176471 7.6605042,21.9193277 7.24369748,21.1327731 L6.86386555,21.1327731 C5.41512605,21.112605 0,20.5882353 0,13.902521 C0,7.22352941 5.36806723,6.72941176 6.81008403,6.71596639 L6.98823529,6.71596639 L6.98823529,3.4789916 C6.98823529,3.28067227 7.01512605,3.08571429 7.06890756,2.90084034 L7.07226891,2.89747899 C7.3512605,1.92605042 8.3394958,1.17647059 10.0067227,0.675630252 C11.4420168,0.238655462 13.3210084,0 15.3042017,0 C17.2907563,0 19.1731092,0.238655462 20.605042,0.672268908 Z" id="Añadir-bloque-consulta_1Light"></path>
        </g>
    </g>
</svg>

<svg width="24" height="24" viewBox="0 0 24 24" xmlns="http://www.w3.org/2000/svg"><path d="M7.68 17.51a.491.491 0 01-.98 0V14.4H3.61a.495.495 0 010-.988H6.7v-3.07a.491.491 0 01.98 0v3.07h3.096a.495.495 0 010 .988H7.681v3.11zm12.643 4.497c1.536-.464 2.316-1.09 2.316-1.862v-3.906c-.528.403-1.21.746-2.02.991-1.436.434-3.318.67-5.298.67a24.68 24.68 0 01-1.802-.068c-1.277 2.37-3.657 3.042-5.102 3.227.383.366 1.015.689 1.875.948 1.355.403 3.137.628 5.016.628 1.879.004 3.66-.222 5.015-.628zm-13.446-1.86h.212c.145 0 .29 0 .414-.002 5.468-.101 5.895-4.77 5.895-6.199 0-5.499-4.148-6.195-5.93-6.235a24.97 24.97 0 00-.52-.007h-.124c-1.755.017-5.836.649-5.836 6.199-.003 5.56 4.118 6.218 5.89 6.245zM10.29 1.614C9.005 2 8.23 2.524 8.03 3.133c.004.006.01.013.014.023.198.602.981 1.123 2.259 1.51 1.344.403 3.126.628 5.015.628 1.889 0 3.67-.225 5.015-.628 1.243-.377 2.02-.881 2.242-1.466.003-.01.013-.017.02-.027-.182-.635-.941-1.16-2.272-1.56-1.345-.403-3.126-.628-5.019-.628-1.889 0-3.67.225-5.015.628zm3.906 10.427c.114.575.188 1.197.188 1.903 0 1.153-.175 2.11-.454 2.924 2.326.141 4.726-.077 6.407-.581 1.331-.4 2.054-1.019 2.303-1.483v-4.39c-.525.404-1.21.747-2.02.992-1.44.434-3.318.669-5.298.669-.343.003-.763-.007-1.126-.034zM7.973 4.622V6.75c1.523.127 4.766.82 5.956 4.275.004 0 .01-.003.014 0 .255.044.743.067 1.378.067 1.886 0 3.667-.225 5.015-.628 1.335-.403 2.054-1.019 2.303-1.482v-4.34c-.494.387-1.167.713-2.024.971-1.432.434-3.314.67-5.297.67-1.984 0-3.866-.24-5.298-.67-.87-.265-1.55-.595-2.047-.991zM20.605.672c2.003.602 3.019 1.546 3.019 2.807v16.666c0 1.26-1.016 2.205-3.016 2.806-1.445.434-3.327.673-5.304.673-1.973 0-3.852-.24-5.297-.67-1.446-.436-2.346-1.035-2.763-1.821h-.38C5.415 21.113 0 20.588 0 13.903c0-6.68 5.368-7.174 6.81-7.187h.178V3.479c0-.198.027-.393.08-.578l.004-.004c.28-.97 1.267-1.72 2.935-2.221C11.442.239 13.32 0 15.304 0c1.987 0 3.87.239 5.301.672z" fill="#5CB615" fill-rule="nonzero"/></svg>
